X:1
T:Molihua
M:4/4
L:1/8
V:1
K:C
|e2egac'c'a|g2gag4|e2egac'c'a|g2gag4|g2g2g2eg|a2a2g4|e2deg2ed|c2cdc4|edced3e|g2ac'g4|d2egdecA|G4A2Ac|d3ecdcA|G4A2Ac|d3ecdcA|g4[g'bd']4|
V:2
K: C bass
|C,G,CG,C,G,CG,|C,G,CG,C,G,CG,|C,G,CG,C,G,CG,|C,G,CG,C,G,C,D,
|E,B,EB,E,B,EB,|F,CFCF,CFC|C,G,CG,C,G,CG,|A,,E,A,E,A,,E,A,E,|C,G,CG,D,A,DA,|E,B,EB,E,B,EB,|D,A,DA,D,A,DA,|G,,D,G,D,F,,C,F,C,|G,,D,G,D,F,,C,F,C,|G,,D,G,D,F,,C,F,C,|G,,D,G,D,D,^F,A,C|G,,G,CDG4|